X:203
L:1/8
Q:1/4=100
M:4/4
K:Ab
"Ab" E>E F>E c2 A2 |"Db" B>A F>G A4 |"Eb" G>A B>A c>B"Eb7" d>G |"Ab" A6 z2 | E>E F>E c2 A2 | 
"Db" B>A F>G A4 |"Eb" G>A B>A c>B"Eb7" d>G |"Ab" A6 z2 ||"Ab" c2 c2"Eb7" e>d B>G | 
"Fm" A2 A2"C" c4 |"Db" F2 F2"Bb" B>c B>A |"Eb" G2"Bb7" F2"Eb" E2 z2 |"Ab" E>E F>E c2 A2 | 
"Db" B>A F>G A4 |"Eb" G>A B>A c>B"Eb7" d>G |"Ab" A6 z2 |]

